X:222
T:When The Roll Is Called Up Yonder
%%stretchlast false
M:4/4
L:1/4
K:F clef=C1
"^I"[F,FAf]3/4 "^ii7³"[F,FBg]/4 "^I"[F,Fca]3/4 [F,Fca]/4 [F,Fca]3/4 [F,Fca]/4 [F,Fca]3/4 "^V²"[G,Ecg]/4 | "^I¹"[A,Fcf]3/4 [A,Fcf]/4 "^ii¹"[B,DBg]3/4 "^IV"[B,DBf]/4 [B,DBf]3/4 [B,FBd]/4 "^I"[F,FAc] | [F,FAf]3/4 "^ii7³"[F,FBg]/4 "^I"[F,Fca]3/4 [F,Fca]/4 [F,Fca]3/4 [F,Fca]/4 [Fca]3/4 [Fca]/4 | "^V¹"[EGcg]3/4 "^II7²"[DG=Bf]/4 "^V"[CEcg]3 | "^I"[F,FAf]3/4 "^ii7³"[F,FBg]/4 "^I"[F,Fca]3/4 [F,Fca]/4 [F,Fca]3/4 [F,Fca]/4 [F,Fca]3/4 "^V²"[G,Ecg]/4 | "^I¹"[A,Fcf]3/4 [A,Fcf]/4 "^ii¹"[B,DBg]3/4 "^IV"[B,DBf]/4 [B,DBf]3/4 [B,FBd]/4 "^I"[F,FAc] | [F,FAf]3/4 "^ii7³"[F,FBg]/4 "^I²"[CFca]3/4 [CFca]/4 [CFca]3/4 [CFAf]/4 "^V7"[CEBg]3/4 [CEBg]/4 | [CEBg]3/4 [CGBe]/4 "^I"[F,FAf]3 | [Ffa]3/4 "^ii7³"[Fgb]/4 "^I"[Fac']3/4 [Fac']/4 [Fcac']3/4 [Fcac']/4 [Fcac']3/4 "^ii"[Fcgb]/4 | "^I"[Fcfa]3/4 "^ii"[Fcgb]/4 "^I"[Fcac']3/4 [Fcac']/4 "^iii¹"[Ccac']3/4 [Ccac']/4 "^I²"[Ccfa]3/4 [Ccfa]/4 | [Cfa]3/4 [Cfa]/4 "^v7"[Cgb]3/4 [Cgb]/4 [Ccgb]3/4 [Ccgb]/4 [Ccgb]3/4 "^I²"[Ccfa]/4 | "^V"[Fceg]3/4 "^I"[Fcfa]/4 "^ii"[Fcgb]3/4 [Fcgb]/4 [Fcgb]3/4 [Fcgb]/4 "^V7³"[B,ceg] | "^iv7"[B,fa]3/4 "^ii¹"[B,gb]/4 "^iii"[B,ac'] [B,cac']3/4 [B,cac']/4 "^iii¹"[Ccac']3/4 "^I²"[Ccfa]/4 | "^v7"[CBcg]3/4 "^I²"[CAcf]/4 "^IV"[CBdf]3/4 [CBdf]/4 [CBdf]3/4 [CBdf]/4 "^IV²"[F,Fdb] | [F,Fdb]3/4 [F,Fdg]/4 "^I"[F,Fca]3/4 [F,Fca]/4 [Fca]3/4 [FAf]/4 "^vii°"[EBg]3/4 [EBg]/4 | [EBg]3/4 "^vii°¹"[GBe]/4 "^I"[FAf]3 |]
